resources/svg/game-controller-o.svg

<svg width="15" height="15" viewBox="0 0 15 15" fill="none" xmlns="http://www.w3.org/2000/svg">
<path d="M9.81672 11.1334L9.3695 11.357L9.3695 11.357L9.81672 11.1334ZM9.5 10.5L9.94721 10.2764C9.86252 10.107 9.68939 10 9.5 10V10.5ZM5.5 10.5V10C5.31061 10 5.13748 10.107 5.05279 10.2764L5.5 10.5ZM14 5.5V10.0279H15V5.5H14ZM10.2639 10.9098L9.94721 10.2764L9.05279 10.7236L9.3695 11.357L10.2639 10.9098ZM9.5 10H5.5V11H9.5V10ZM5.05279 10.2764L4.73607 10.9098L5.6305 11.357L5.94721 10.7236L5.05279 10.2764ZM1 10.0279V5.5H0V10.0279H1ZM3.5 3H11.5V2H3.5V3ZM2.97214 12C1.88296 12 1 11.117 1 10.0279H0C0 11.6693 1.33067 13 2.97214 13V12ZM12.0279 12C11.2809 12 10.598 11.578 10.2639 10.9098L9.3695 11.357C9.87296 12.364 10.9021 13 12.0279 13V12ZM14 10.0279C14 11.117 13.117 12 12.0279 12V13C13.6693 13 15 11.6693 15 10.0279H14ZM4.73607 10.9098C4.402 11.578 3.71913 12 2.97214 12V13C4.0979 13 5.12704 12.364 5.6305 11.357L4.73607 10.9098ZM15 5.5C15 3.567 13.433 2 11.5 2V3C12.8807 3 14 4.11929 14 5.5H15ZM1 5.5C1 4.11929 2.11929 3 3.5 3V2C1.567 2 0 3.567 0 5.5H1ZM3 7H6V6H3V7ZM4 5V8H5V5H4ZM11 6H12V5H11V6ZM9 8H10V7H9V8Z" fill="black"/>
</svg>

<svg viewBox="0 0 15 15" fill="none" xmlns="http://www.w3.org/2000/svg" fill="currentColor"><path d="M9.817 11.133l-.447.224.447-.224zM9.5 10.5l.447-.224A.5.5 0 009.5 10v.5zm-4 0V10a.5.5 0 00-.447.276l.447.224zm8.5-5v4.528h1V5.5h-1zm-3.736 5.41l-.317-.634-.894.448.316.633.895-.447zM9.5 10h-4v1h4v-1zm-4.447.276l-.317.634.894.447.317-.633-.894-.448zM1 10.028V5.5H0v4.528h1zM3.5 3h8V2h-8v1zm-.528 9A1.972 1.972 0 011 10.028H0A2.972 2.972 0 002.972 13v-1zm9.056 0c-.747 0-1.43-.422-1.764-1.09l-.894.447A2.972 2.972 0 0012.027 13v-1zM14 10.028A1.972 1.972 0 0112.028 12v1A2.972 2.972 0 0015 10.028h-1zm-9.264.882A1.972 1.972 0 012.972 12v1a2.972 2.972 0 002.658-1.643l-.894-.447zM15 5.5A3.5 3.5 0 0011.5 2v1A2.5 2.5 0 0114 5.5h1zm-14 0A2.5 2.5 0 013.5 3V2A3.5 3.5 0 000 5.5h1zM3 7h3V6H3v1zm1-2v3h1V5H4zm7 1h1V5h-1v1zM9 8h1V7H9v1z" fill="currentColor"/></svg>
